X:873
%%stretchlast 1
T:Whistling Rufus 
C:Joe Buchanan's Scottish Tome - Page 433.0
I:433 0
R:Two-step
Z:Carl Allison
L:1/8
M:C
K:G
W:Intro
%%vskip 0
e/<g/e de/d/ | BG A/G/E/D/ | G/<B/G A/G/A | G3 :|
%%vskip 20
P:A
|: d2 | GG/B/ dd/e/ | gg e/<d/d | GG/A/ BA/G/ | (d3 d) |
GG/B/ dd/e/ | gg e/<d/d | aa a/g/e | a3 d |
GG/B/ dd/e/ | gg e/<d/d | GG/A/ BA/G/ | d3 g |
e/<g/e de/d/ | BG A/G/E/D/ | G/<B/G A/G/A | G3 :|
P:B
FG | d2 d2- | de dG | F2 (F2 | F)c ^GA |
e2 e2- | ef ec | B2 (B2 | B)G FG |
d2 d2- | de dG | c2 c2- | cd cG |
B2 cB | E2 F2 | G4 | G3 :|
%%newpage
T:Whistling Rufus (cont)
P:C
G2 | C2 D z | E3 G | A>B A>B | AG EC |
D>E D>E | DA, B,C | D>E D>E | DB, A,G, |
C3 d | E3 G | A>B A>B | AG EC |
D>E D>E | DA, B,C | D4 | C3 |]
%
W:Play A twice, C once
%%leftmargin 2cm
W:     B twice, B once
W:A once, A once
%%leftmargin 2cmo

